X: 1
T: The Countess of Sutherland's Reel   [Bb]
C: Daniel Dow (1732-1783)
R: reel
B: Petrie's Third Collection of Strathspey Reels and Country Dances &c.
Z: Steve Wyrick <sjwyrick'at'gmail'dot'com>, 7/31/05
B: Petrie's Third Collection, page 24
B: Orginally Ours, p.181
L: 1/8
M: C
K: Bb
d |\
"Bb"B2FB "Eb"GB"Bb"FB | "Eb"EB"Bb"DB "F7"Cccd |\
"Bb"B2FB "Cm"Ggfe | "Bb"df"F7"ce "Bb"dBB :|
f/g//a// |\
"Bb"bfdf "Eb"eg"F7"ce | "Bb"dfBd "F7"cFFa |\
"Bb"bfdf "Eb"eg"F7"ce | "Bb"df"F7"ec "Bb"dBB |]
f/g//a// |\
"Bb"bfdf "Eb"eg"F7"ce | "Bb"dfBd "F7"cFFf |\
"Eb"gfga "Bb"bgfe | "Bb"df"F7"ce "Bb"dBB |]
